synths/sKYBER.svg

<svg width="42" height="42" viewBox="0 0 42 42" fill="none" xmlns="http://www.w3.org/2000/svg">
<g clip-path="url(#clip0_7277_57916)">
<mask id="mask0_7277_57916" style="mask-type:alpha" maskUnits="userSpaceOnUse" x="0" y="0" width="42" height="42">
<circle cx="21" cy="21" r="21" transform="matrix(-1 0 0 1 42 0)" fill="url(#paint0_linear_7277_57916)"/>
</mask>
<g mask="url(#mask0_7277_57916)">
<circle cx="21" cy="21" r="21" transform="matrix(-1 0 0 1 42 0)" fill="#34EDB3"/>
<circle cx="18.2" cy="18.2" r="18.2" transform="matrix(-1 0 0 1 39.2 2.80005)" fill="white"/>
</g>
<circle cx="16.1" cy="16.1" r="16.1" transform="matrix(-1 0 0 1 37.1 4.90002)" fill="#0B0B22"/>
<circle cx="21" cy="21" r="16.1" fill="#31CB9E"/>
<path fill-rule="evenodd" clip-rule="evenodd" d="M22.3063 9.39885L28.2802 13.7873C28.3421 13.831 28.3917 13.8898 28.4242 13.9581C28.4567 14.0264 28.471 14.1019 28.4657 14.1774C28.4604 14.2529 28.4358 14.3257 28.3941 14.3888C28.3524 14.452 28.2952 14.5034 28.2278 14.538L19.3771 19.4257L21.5583 9.65022C21.5789 9.57509 21.6176 9.50617 21.6711 9.44953C21.7247 9.3929 21.7913 9.35028 21.8652 9.32545C21.9392 9.30061 22.0181 9.29432 22.095 9.30712C22.1719 9.31992 22.2445 9.35142 22.3063 9.39885ZM28.4655 26.0032L19.7266 21.0038L28.4655 16.0008C28.5353 15.9576 28.6154 15.934 28.6975 15.9323C28.7795 15.9306 28.8605 15.951 28.932 15.9914C29.0035 16.0317 29.0628 16.0905 29.1037 16.1615C29.1446 16.2326 29.1657 16.3133 29.1646 16.3953V25.6052C29.1652 25.6871 29.1439 25.7676 29.1029 25.8385C29.062 25.9094 29.0029 25.9681 28.9317 26.0086C28.8605 26.0492 28.7798 26.07 28.6979 26.0691C28.616 26.0681 28.5357 26.0454 28.4655 26.0032ZM22.2993 32.6052L28.2802 28.2167C28.343 28.1727 28.3933 28.1133 28.4264 28.0443C28.4596 27.9752 28.4744 27.8988 28.4695 27.8224C28.4646 27.746 28.4401 27.6722 28.3984 27.6079C28.3567 27.5437 28.2991 27.4912 28.2313 27.4556L19.3771 22.5678L21.5583 32.3433C21.5764 32.4193 21.6131 32.4896 21.6651 32.5478C21.7171 32.6061 21.7828 32.6506 21.8563 32.6772C21.9297 32.7039 22.0087 32.7119 22.086 32.7005C22.1634 32.6892 22.2367 32.6588 22.2993 32.6122V32.6052ZM19.7266 10.2088L17.4545 20.8222L19.6986 31.4426C19.716 31.5305 19.7067 31.6217 19.6719 31.7043C19.6371 31.7869 19.5784 31.8573 19.5033 31.9064C19.4282 31.9555 19.3402 31.9812 19.2504 31.98C19.1607 31.9788 19.0733 31.951 18.9995 31.8999L13.2074 27.4556C13.0581 27.3412 12.9377 27.1936 12.8558 27.0245C12.7738 26.8553 12.7326 26.6694 12.7355 26.4815V15.1699C12.7348 14.9844 12.777 14.8012 12.8589 14.6347C12.9407 14.4681 13.06 14.3227 13.2074 14.2098L19.0275 9.75146C19.1013 9.70043 19.1886 9.67256 19.2784 9.67141C19.3681 9.67025 19.4562 9.69588 19.5313 9.74499C19.6063 9.79411 19.665 9.86449 19.6998 9.94712C19.7346 10.0297 19.744 10.1209 19.7266 10.2088Z" fill="white"/>
</g>
<defs>
<linearGradient id="paint0_linear_7277_57916" x1="21" y1="0" x2="21" y2="61.4091" gradientUnits="userSpaceOnUse">
<stop stop-color="#08021E"/>
<stop offset="1" stop-color="#1F0777"/>
</linearGradient>
<clipPath id="clip0_7277_57916">
<rect width="42" height="42" fill="white"/>
</clipPath>
</defs>
</svg>

<svg xmlns="http://www.w3.org/2000/svg" width="42" height="42" fill="none"><g clip-path="url(#a)"><mask id="c" width="42" height="42" x="0" y="0" maskUnits="userSpaceOnUse" style="mask-type:alpha"><circle cx="21" cy="21" r="21" fill="url(#b)" transform="matrix(-1 0 0 1 42 0)"/></mask><g mask="url(#c)"><circle cx="21" cy="21" r="21" fill="#34EDB3" transform="matrix(-1 0 0 1 42 0)"/><circle cx="18.2" cy="18.2" r="18.2" fill="#fff" transform="matrix(-1 0 0 1 39.2 2.8)"/></g><circle cx="16.1" cy="16.1" r="16.1" fill="#0B0B22" transform="matrix(-1 0 0 1 37.1 4.9)"/><circle cx="21" cy="21" r="16.1" fill="#31CB9E"/><path fill="#fff" fill-rule="evenodd" d="m22.306 9.399 5.974 4.388a.441.441 0 0 1-.052.751l-8.85 4.888 2.18-9.776a.475.475 0 0 1 .748-.251Zm6.16 16.604-8.74-5 8.74-5.002a.459.459 0 0 1 .699.394v9.21a.46.46 0 0 1-.467.464.462.462 0 0 1-.233-.066Zm-6.167 6.602 5.981-4.388a.446.446 0 0 0-.049-.761l-8.854-4.888 2.181 9.775a.47.47 0 0 0 .741.27v-.008ZM19.727 10.21l-2.273 10.613 2.245 10.62a.45.45 0 0 1-.7.458l-5.792-4.444a1.205 1.205 0 0 1-.472-.974V15.17a1.202 1.202 0 0 1 .472-.96l5.82-4.459a.451.451 0 0 1 .7.458Z" clip-rule="evenodd"/></g><defs><linearGradient id="b" x1="21" x2="21" y1="0" y2="61.409" gradientUnits="userSpaceOnUse"><stop stop-color="#08021E"/><stop offset="1" stop-color="#1F0777"/></linearGradient><clipPath id="a"><path fill="#fff" d="M0 0h42v42H0z"/></clipPath></defs></svg>
